src/xmb/retrosystem/core-shader-options.svg

<?xml version="1.0" encoding="UTF-8" standalone="no"?>
<svg
   xmlns:dc="http://purl.org/dc/elements/1.1/"
   xmlns:cc="http://creativecommons.org/ns#"
   xmlns:rdf="http://www.w3.org/1999/02/22-rdf-syntax-ns#"
   xmlns:svg="http://www.w3.org/2000/svg"
   xmlns="http://www.w3.org/2000/svg"
   xmlns:sodipodi="http://sodipodi.sourceforge.net/DTD/sodipodi-0.dtd"
   xmlns:inkscape="http://www.inkscape.org/namespaces/inkscape"
   version="1.1"
   id="Calque_1"
   x="0px"
   y="0px"
   width="64px"
   height="64px"
   viewBox="0 0 64 64"
   enable-background="new 0 0 64 64"
   xml:space="preserve"
   inkscape:version="0.92.3 (2405546, 2018-03-11)"
   sodipodi:docname="core-shader-options.svg"
   inkscape:export-filename="/home/kivutar/Bureau/retroarch-assets/xmb/monochrome/png/core-shader-options.png"
   inkscape:export-xdpi="90"
   inkscape:export-ydpi="90"><metadata
     id="metadata8"><rdf:RDF><cc:Work
         rdf:about=""><dc:format>image/svg+xml</dc:format><dc:type
           rdf:resource="http://purl.org/dc/dcmitype/StillImage" /><dc:title /></cc:Work></rdf:RDF></metadata><defs
     id="defs6"><clipPath
       id="clipPath46"
       clipPathUnits="userSpaceOnUse"><path
         inkscape:connector-curvature="0"
         id="path44"
         d="M 0,256 H 256 V 0 H 0 Z" /></clipPath></defs><sodipodi:namedview
     pagecolor="#ffffff"
     bordercolor="#666666"
     borderopacity="1"
     objecttolerance="10"
     gridtolerance="10"
     guidetolerance="10"
     inkscape:pageopacity="0"
     inkscape:pageshadow="2"
     inkscape:window-width="1920"
     inkscape:window-height="1001"
     id="namedview4"
     showgrid="false"
     inkscape:zoom="16"
     inkscape:cx="1.791175"
     inkscape:cy="34.465846"
     inkscape:window-x="-9"
     inkscape:window-y="-9"
     inkscape:window-maximized="1"
     inkscape:current-layer="g4142"
     showguides="false"
     inkscape:snap-object-midpoints="true"
     inkscape:pagecheckerboard="true"><inkscape:grid
       type="xygrid"
       id="grid2985"
       empspacing="4"
       visible="true"
       enabled="true"
       snapvisiblegridlinesonly="true" /></sodipodi:namedview><g
     id="g4142"
     transform="matrix(2,0,0,2,-32,-32)"><path
       style="color:#000000;font-style:normal;font-variant:normal;font-weight:normal;font-stretch:normal;font-size:medium;line-height:normal;font-family:sans-serif;font-variant-ligatures:normal;font-variant-position:normal;font-variant-caps:normal;font-variant-numeric:normal;font-variant-alternates:normal;font-feature-settings:normal;text-indent:0;text-align:start;text-decoration:none;text-decoration-line:none;text-decoration-style:solid;text-decoration-color:#000000;letter-spacing:normal;word-spacing:normal;text-transform:none;writing-mode:lr-tb;direction:ltr;text-orientation:mixed;dominant-baseline:auto;baseline-shift:baseline;text-anchor:start;white-space:normal;shape-padding:0;clip-rule:nonzero;display:inline;overflow:visible;visibility:visible;opacity:1;isolation:auto;mix-blend-mode:normal;color-interpolation:sRGB;color-interpolation-filters:linearRGB;solid-color:#000000;solid-opacity:1;vector-effect:none;fill:none;fill-opacity:1;fill-rule:nonzero;stroke:#1a1a1a;stroke-width:0.5;stroke-linecap:round;stroke-linejoin:round;stroke-miterlimit:4;stroke-dasharray:none;stroke-dashoffset:0;stroke-opacity:1;color-rendering:auto;image-rendering:auto;shape-rendering:auto;text-rendering:auto;enable-background:accumulate"
       d="m 32,27 c -3.592039,0 -6.562595,1.181994 -9.251953,4.34082 -0.318268,0.373712 -0.318268,0.923163 0,1.296875 2.689358,3.158826 5.659914,4.34082 9.251953,4.34082 3.592039,0 6.562595,-1.181993 9.251953,-4.34082 0.318268,-0.373712 0.318268,-0.923163 0,-1.296875 C 38.562595,28.181993 35.592039,27 32,27 Z"
       id="path821"
       inkscape:connector-curvature="0"
       sodipodi:nodetypes="sccsccs" /><path
       style="fill:#f2f2f2;fill-opacity:1;stroke:#99999f;stroke-width:4;stroke-linecap:round;stroke-linejoin:round;stroke-miterlimit:4;stroke-dasharray:none;stroke-opacity:1"
       d="M 32 24 C 25.207498 24 20.113909 25.994838 15.019531 31.978516 C 20.113909 37.962194 25.207498 39.957031 32 39.957031 C 38.792502 39.957031 43.886093 37.962194 48.980469 31.978516 C 43.886093 25.994838 38.792502 24 32 24 z "
       id="path2987"
       transform="matrix(0.5,0,0,0.5,16,16)" /><ellipse
       style="opacity:0.98999999;vector-effect:none;fill:#000000;fill-opacity:0.99215686;stroke:none;stroke-width:0.5;stroke-linecap:butt;stroke-linejoin:miter;stroke-miterlimit:4;stroke-dasharray:none;stroke-dashoffset:0;stroke-opacity:1;paint-order:markers stroke fill"
       id="path847"
       cx="32.042484"
       cy="32.090096"
       rx="2.8284271"
       ry="2.3864853" /><path
       style="fill:#00b800;fill-opacity:1;stroke:none;stroke-width:1.50514245"
       d="M 32 24 C 27.581722 24 24 27.581722 24 32 C 24 36.418278 27.581722 40 32 40 C 36.418278 40 40 36.418278 40 32 C 40 27.581722 36.418278 24 32 24 z M 32 28 A 4 4 0 0 1 36 32 A 4 4 0 0 1 32 36 A 4 4 0 0 1 28 32 A 4 4 0 0 1 32 28 z "
       transform="matrix(0.5,0,0,0.5,16,16)"
       id="path3788" /><circle
       style="opacity:0.98999999;vector-effect:none;fill:#f2f2f2;fill-opacity:0.99215686;stroke:none;stroke-width:1.99999964;stroke-linecap:butt;stroke-linejoin:miter;stroke-miterlimit:4;stroke-dasharray:none;stroke-dashoffset:0;stroke-opacity:1"
       id="path820"
       cx="32"
       cy="32"
       r="0.75" /><path
       style="opacity:0.98999999;vector-effect:none;fill:#f2f2f2;fill-opacity:1;stroke:none;stroke-width:2;stroke-linecap:butt;stroke-linejoin:miter;stroke-miterlimit:4;stroke-dasharray:none;stroke-dashoffset:0;stroke-opacity:1"
       id="path819"
       sodipodi:type="arc"
       sodipodi:cx="31.5"
       sodipodi:cy="32.5"
       sodipodi:rx="3"
       sodipodi:ry="3.4641018"
       sodipodi:start="5.2359878"
       sodipodi:end="0"
       d="m 33,29.5 a 3,3.4641018 0 0 1 1.5,3 h -3 z" /></g></svg>

<svg xmlns="http://www.w3.org/2000/svg" xml:space="preserve" width="64" height="64"><g transform="matrix(2 0 0 2 -32 -32)"><path d="M32 27c-3.592 0-6.563 1.182-9.252 4.34a1 1 0 0 0 0 1.298c2.69 3.159 5.66 4.34 9.252 4.34s6.563-1.181 9.252-4.34a1 1 0 0 0 0-1.297C38.562 28.182 35.592 27 32 27" style="color:#000;font-style:normal;font-variant:normal;font-weight:400;font-stretch:normal;font-size:medium;line-height:normal;font-family:sans-serif;font-variant-ligatures:normal;font-variant-position:normal;font-variant-caps:normal;font-variant-numeric:normal;font-variant-alternates:normal;font-feature-settings:normal;text-indent:0;text-align:start;text-decoration:none;text-decoration-line:none;text-decoration-style:solid;text-decoration-color:#000;letter-spacing:normal;word-spacing:normal;text-transform:none;writing-mode:lr-tb;direction:ltr;text-orientation:mixed;dominant-baseline:auto;baseline-shift:baseline;text-anchor:start;white-space:normal;shape-padding:0;clip-rule:nonzero;display:inline;overflow:visible;visibility:visible;opacity:1;isolation:auto;mix-blend-mode:normal;color-interpolation:sRGB;color-interpolation-filters:linearRGB;solid-color:#000;solid-opacity:1;vector-effect:none;fill:none;fill-opacity:1;fill-rule:nonzero;stroke:#1a1a1a;stroke-width:.5;stroke-linecap:round;stroke-linejoin:round;stroke-miterlimit:4;stroke-dasharray:none;stroke-dashoffset:0;stroke-opacity:1;color-rendering:auto;image-rendering:auto;shape-rendering:auto;text-rendering:auto"/><path d="M32 24c-6.793 0-11.886 1.995-16.98 7.979 5.094 5.983 10.187 7.978 16.98 7.978s11.886-1.995 16.98-7.978C43.886 25.995 38.793 24 32 24" style="fill:#f2f2f2;fill-opacity:1;stroke:#99999f;stroke-width:4;stroke-linecap:round;stroke-linejoin:round;stroke-miterlimit:4;stroke-dasharray:none;stroke-opacity:1" transform="matrix(.5 0 0 .5 16 16)"/><ellipse cx="32.042" cy="32.09" rx="2.828" ry="2.386" style="opacity:.98999999;vector-effect:none;fill:#000;fill-opacity:.99215686;stroke:none;stroke-width:.5;stroke-linecap:butt;stroke-linejoin:miter;stroke-miterlimit:4;stroke-dasharray:none;stroke-dashoffset:0;stroke-opacity:1;paint-order:markers stroke fill"/><path d="M32 24a8 8 0 1 0 0 16 8 8 0 0 0 0-16m0 4a4 4 0 0 1 4 4 4 4 0 0 1-4 4 4 4 0 0 1-4-4 4 4 0 0 1 4-4" style="fill:#00b800;fill-opacity:1;stroke:none;stroke-width:1.50514245" transform="matrix(.5 0 0 .5 16 16)"/><circle cx="32" cy="32" r=".75" style="opacity:.98999999;vector-effect:none;fill:#f2f2f2;fill-opacity:.99215686;stroke:none;stroke-width:1.99999964;stroke-linecap:butt;stroke-linejoin:miter;stroke-miterlimit:4;stroke-dasharray:none;stroke-dashoffset:0;stroke-opacity:1"/><path d="M33 29.5a3 3.464 0 0 1 1.5 3h-3z" style="opacity:.98999999;vector-effect:none;fill:#f2f2f2;fill-opacity:1;stroke:none;stroke-width:2;stroke-linecap:butt;stroke-linejoin:miter;stroke-miterlimit:4;stroke-dasharray:none;stroke-dashoffset:0;stroke-opacity:1"/></g></svg>
